X:1
T:James Gibb editions
T:Au temps heureux - Arcadelt
T:#
%%score [ 1 2 3 4 ]
L:1/8
Q:1/4=144
M:4/4
K:A
V:1 treble nm="Soprano " snm="S"
V:2 treble nm="Alto" snm="A"
V:3 treble-8 nm="Tenor" snm="T"
V:4 bass nm="Bass" snm="B"
V:1
"^Au temps heureux""^Jacques Arcadelt\n(1505-68)""^Au temps heureux - Arcadelt" A4 A2 A2 | %1
w: Au temps heu-|
 F2 E2 A3 G | F2 E2 D4 | C4 z2 A2 |[M:4/4] G2 A2 B2 B2 | E2 A2 G2 ((F2- | FE)) (E4 D2) | E4 z2 e2 | %8
w: reux que ma jeune|i- gno- ran-|ce Re-|ceut l'en- fant que|des dieux est le|* * mai\- *|stre, Vous|
 e2 e2 c2 e2 | e2 e2 d2 d2 | c2 c2 z2 A2 | A2 A2 B2 B2 | (cBcd edcB) | A2 d2 c2 (B2- | BA A4 G2) | %15
w: co- gnois- sant qu'el|na fai- soit que|mai- stre, Vou-|la- stes bien le|nou\- * * * * * * *|rir d'e- spe- ran\-||
 A8 || e4 e2 e2 | d2 c2 A2 d2 | c2 B2 (A2 B2- | B2 ^A2) B4 | z2 c2 c2 c2 | B2 B2 d2 d2 | c2 A4 G2 | %23
w: ce:|Na pour as-|say que je fa-|ce ou ef\- *|* * fort|Pos- si- ble|m'est lo- ster da|sa de- meu-|
 A4 z2 A2 | A2 A2 F2 A2 | A2 A2 F2 A2 | G4 F4 | G4 A4 | (B4 c4) | z2 c2 d4- | d2 d2 c2 c2 | %31
w: re, car|plus que moy il|est de- ve- nu|fort; Mal-|gré moy|donc *|il fault|* qu'el y de-|
 B4 A4 |: z2 e2 e2 e2 | c2 d2 e2 c2 | c2 B2 c4 | z2 A2 B2 c2 | d2 B2 c2 (e2- | edcB A2) (d2- | %38
w: meu- re,|Mais mau- gre|luy aus- si j'ay|ce con- fort,|Qu'il sor- ti-|ra au moins mais|* * * * * que|
 dcBA G2) (B2- | BA) (A4 G2) | A8 :| %41
w: * * * * * je|* * meu\- *|re.|
V:2
 C4 C2 C2 | D2 B,2 C2 A,2 | A,2 A,2 B,4 | E,2 A,2 F,2 F2 |[M:4/4] E2 E2 D4 | C4 E2 D2 | (E4 F4) | %7
w: Au temps heu-|reux que ma jeune|i- gno- ran-|ce Re- ceut l'en-|fant que des|dieux est le|mai\- *|
 G4 z2 G2 | G2 G2 A2 G2 | E2 A2 F2 F2 | E4 C4 | z2 F2 F2 D2 | E2 A2 G4 | F4 z2 F2 | (E2 D2) E4 | %15
w: stre, Vous|co- gnois- sant qu'el|na fai- soit que|mai- stre,|Vou- la- stes|bien le nou-|rir d'e-|spe\- * ran-|
 E8 || C4 C2 C2 | B,2 E2 A,2 B,2 | C2 E2 (C2 D2 | E4) D4 | E4 E2 E2 | G2 G2 F2 F2 | E2 D2 E4 | %23
w: ce:|Na pour as-|say que je fa-|ce ou ef\- *|* fort|Pos- si- ble|m'est lo- ster da|sa de- meu-|
 C4 z2 F2 | E2 E2 D2 F2 | E2 E2 (D2 CD) | E4 A,4 | z2 E4 F2 | D4 C4 | B,4 A4 | (A3 G/F/) E2 F2 | %31
w: re, car|plus que moy il|est de- ve\- * *|nu fort;|Mal- gré|moy donc|il fault|qu'el * * y de-|
 (F2 E2) F4 |: G4 G2 G2 | A2 A2 G2 E2 | F2 F2 E4 | z2 F2 G2 G2 | F2 G4 A2- | A2 E2 F4 | %38
w: meu\- * re,|Mais mau- gre|luy aus- si j'ay|ce con- fort,|Qu'il sor- ti-|ra au moins|* mais que|
 (F2 G2) (E2 F2- | FEDE F4) | E8 :| %41
w: je * meu\- *||re.|
V:3
 A4 E2 A2 | A2 G2 A2 (FE) | (FG) A4 G2 | A2 e2 d3 c |[M:4/4][K:treble-8] (B2 A4 G2 | A2) A2 B2 A2 | %6
w: Au temps heu-|reux que ma jeune *|i\- * gno- ran-|ce Re- ceut l'en-|fant * *|* que des dieux|
 B2 c2 A4 | B4 z2 c2 | B2 c2 A2 B2 | c2 c2 (dcBA | G2) E2 (e3 d | cBAG FE) F2 | G2 A2 B2 c2- | %13
w: est le mai-|stre, Vous|co- gnois- sant qu'el|na fai- soit * * *|* que mai\- *|* * * * * * stre,|Vou- la- stes bien|
 c2 d2 e2 d2 | c2 A2 B4 | A8 || A4 A2 A2 | F2 E2 F (A2 G) | A2 G2 (A2 F2- | FE F2) F4 | %20
w: * le nou- rir|d'e- spe- ran-|ce:|Na pour as-|say que je fa\- *|ce ou ef\- *|* * * fort|
 z2 G2 G2 E2 | e2 e2 A2 A2 | c2 d2 B4 | A4 d4 | c2 c2 A2 d2 | c2 c2 A2 A2 | B4 z2 d2 | %27
w: Pos- si- ble|m'est lo- ster da|sa de- meu-|re, car|plus que moy il|est de- ve- nu|fort; Mal-|
 B2 (c3 B A2- | A2 G2) A4 | z2 e2 f4- | f2 f2 c4 | d2 B2 c4 |: z2 c2 B2 c2 | A2 A2 B2 c2 | %34
w: gré moy * *|* * donc|il fault|* qu'el y|de- meu- re,|Mais mau- gre|luy aus- si j'ay|
 F2 F2 G4 | c4 e2 e2 | A2 e2 e2 e2 | c6 (d2- | d2 e2) (B2 d2- | dcBA B4) | A8 :| %41
w: ce con- fort,|Qu'il sor- ti-|ra au moins mais|que je|* * meu- *||re.|
V:4
 A,,4 A,,2 A,,2 | D,2 E,2 A,,2 D,2 | D,2 C,2 B,,4 | A,,4 D,4 |[M:4/4] E,2 C,2 B,,4 | A,,4 E,2 F,2 | %6
w: Au temps heu-|reux que ma jeune|i- gno- ran-|ce Re-|ceut l'en- fant|que des dieux|
 G,2 A,2 F,4 | E,4 z2 E,2 | E,2 E,2 F,2 E,2 | C,2 A,,2 (B,,4 | C,4) A,,2 (A,2- | %11
w: est le mai-|stre, Vous|co- gnois- sant qu'el|na fai- soit|* que mai\-|
 A,G,F,E, D,2) D,2 | C,2 A,,2 E,4 | F,2 B,,2 C,2 D,2 | E,2 F,2 E,4 | A,,8 || A,,4 A,,2 A,,2 | %17
w: * * * * * stre,|Vou- la- stes|bien le nou- rir|d'e- spe- ran-|ce:|Na pour as-|
 B,,2 C,2 D,2 B,,2 | A,,2 E,2 (F,2 D,2 | C,4) B,,4 | C,4 C,2 C,2 | E,2 E,2 D,2 D,2 | E,2 F,2 E,4 | %23
w: say que je fa-|ce ou ef\- *|* fort|Pos- si- ble|m'est lo- ster da|sa de- meu-|
 A,,4 z2 D,2 | A,2 A,2 D,2 D,2 | A,2 A,2 D,2 F,2 | (E,4 D,4) | E,4 C,2 D,2 | (B,,4 A,,4) | %29
w: re, car|plus que moy il|est de- ve- nu|fort; *|Mal- gré moy|donc *|
 z2 A,2 D,4- | D,2 D,2 A,2 A,2 | =G,4 F,4 |: z2 E,2 E,2 E,2 | F,2 F,2 E,2 A,,2 | D,2 D,2 C,4 | %35
w: il fault|* qu'el y de-|meu- re,|Mais mau- gre|luy aus- si j'ay|ce con- fort,|
 z2 F,2 E,2 E,2 | D,2 E,2 C,2 A,,2 | (A,3 G, F,E,D,C, | B,,2) (E,4 D,2) | (F,4 E,4) | A,,8 :| %41
w: Qu'il sor- ti-|ra au moins mais|que * * * * *|* je *|meu\- *|re.|

